images/features-1.svg

<svg width="90" height="90" viewBox="0 0 90 90" fill="none" xmlns="http://www.w3.org/2000/svg">
<path d="M42.6562 31.9688C42.6562 30.6992 43.6328 29.625 45 29.625C46.2695 29.625 47.3438 30.6992 47.3438 31.9688V44.0781L55.6445 49.5469C56.7188 50.3281 57.0117 51.793 56.2305 52.8672C55.5469 53.9414 54.082 54.2344 53.0078 53.4531L43.6328 47.2031C43.0469 46.8125 42.6562 46.0312 42.6562 45.25V31.9688ZM45 20.25C58.7695 20.25 70 31.4805 70 45.25C70 59.1172 58.7695 70.25 45 70.25C31.1328 70.25 20 59.1172 20 45.25C20 31.4805 31.1328 20.25 45 20.25ZM24.6875 45.25C24.6875 56.4805 33.7695 65.5625 45 65.5625C56.1328 65.5625 65.3125 56.4805 65.3125 45.25C65.3125 34.1172 56.1328 24.9375 45 24.9375C33.7695 24.9375 24.6875 34.1172 24.6875 45.25Z" fill="#C6C9A5"/>
</svg>

<svg xmlns="http://www.w3.org/2000/svg" width="90" height="90" fill="none" viewBox="0 0 90 90"><path fill="#c6c9a5" d="M42.656 31.969c0-1.27.977-2.344 2.344-2.344 1.27 0 2.344 1.074 2.344 2.344v12.11l8.3 5.468c1.075.781 1.368 2.246.587 3.32-.684 1.074-2.149 1.367-3.223.586l-9.375-6.25c-.586-.39-.977-1.172-.977-1.953zM45 20.25c13.77 0 25 11.23 25 25 0 13.867-11.23 25-25 25-13.867 0-25-11.133-25-25 0-13.77 11.133-25 25-25m-20.312 25c0 11.23 9.082 20.313 20.312 20.313 11.133 0 20.313-9.083 20.313-20.313 0-11.133-9.18-20.312-20.313-20.312-11.23 0-20.312 9.18-20.312 20.312"/></svg>
